storage/app/icons/phosphoricons/thin/square-split-vertical-thin.svg

<svg xmlns="http://www.w3.org/2000/svg" fill="currentColor" viewBox="0 0 256 256"><path d="M200 44H56a12 12 0 0 0-12 12v144a12 12 0 0 0 12 12h144a12 12 0 0 0 12-12V56a12 12 0 0 0-12-12M56 52h144a4 4 0 0 1 4 4v68H52V56a4 4 0 0 1 4-4m144 152H56a4 4 0 0 1-4-4v-68h152v68a4 4 0 0 1-4 4"/></svg>

<svg xmlns="http://www.w3.org/2000/svg" viewBox="0 0 256 256" fill="currentColor"><path d="M200,44H56A12,12,0,0,0,44,56V200a12,12,0,0,0,12,12H200a12,12,0,0,0,12-12V56A12,12,0,0,0,200,44ZM56,52H200a4,4,0,0,1,4,4v68H52V56A4,4,0,0,1,56,52ZM200,204H56a4,4,0,0,1-4-4V132H204v68A4,4,0,0,1,200,204Z"/></svg>
